icon_installer/data/icons/scalable/actions/show-network-server-symbolic.svg

<?xml version="1.0" encoding="UTF-8"?>
<svg height="16px" viewBox="0 0 16 16" width="16px" xmlns="http://www.w3.org/2000/svg">
    <g fill="#2e3436">
        <path d="m 7.996094 12 c -0.703125 0 -1.355469 0.371094 -1.714844 0.972656 h -3.285156 c -0.554688 0 -1 0.449219 -1 1 c 0 0.550782 0.445312 1 1 1 h 3.246094 c 0.351562 0.640625 1.023437 1.035156 1.753906 1.039063 c 0.726562 -0.003907 1.398437 -0.398438 1.75 -1.039063 h 3.261718 c 0.550782 0 1 -0.449218 1 -1 c 0 -0.550781 -0.449218 -1 -1 -1 h -3.292968 c -0.363282 -0.601562 -1.015625 -0.972656 -1.71875 -0.972656 z m 0 1 c 0.554687 0 1.003906 0.449219 1.003906 1.007812 c 0 0.554688 -0.449219 1.003907 -1.003906 1.003907 c -0.558594 0 -1.007813 -0.449219 -1.007813 -1.003907 c 0 -0.558593 0.449219 -1.007812 1.007813 -1.007812 z m 0 0"/>
        <path d="m 6.992188 10 h 2.007812 v 3 h -2.007812 z m 0 0"/>
        <path d="m 4.007812 1 h 7.984376 c 1.660156 0 3.007812 1.347656 3.007812 3.007812 v 2.972657 c 0 1.660156 -1.347656 3.003906 -3.007812 3.003906 h -7.984376 c -1.660156 0 -3.007812 -1.34375 -3.007812 -3.003906 v -2.972657 c 0 -1.660156 1.347656 -3.007812 3.007812 -3.007812 z m 0 0"/>
        <path d="m 5 4 c 0.550781 0 1 0.449219 1 1 s -0.449219 1 -1 1 s -1 -0.449219 -1 -1 s 0.449219 -1 1 -1 z m 0 0"/>
        <path d="m 8 4 c 0.550781 0 1 0.449219 1 1 s -0.449219 1 -1 1 s -1 -0.449219 -1 -1 s 0.449219 -1 1 -1 z m 0 0"/>
    </g>
</svg>

<svg xmlns="http://www.w3.org/2000/svg" width="16" height="16"><g fill="#2e3436"><path d="M7.996 12a2 2 0 0 0-1.715.973H2.996a1 1 0 1 0 0 2h3.246a2.009 2.009 0 0 0 1.754 1.039 2.007 2.007 0 0 0 1.75-1.04h3.262c.55 0 1-.449 1-1 0-.55-.45-1-1-1H9.715A2.011 2.011 0 0 0 7.996 12zm0 1C8.551 13 9 13.45 9 14.008c0 .555-.45 1.004-1.004 1.004a1.005 1.005 0 1 1 0-2.012zm0 0"/><path d="M6.992 10H9v3H6.992zM4.008 1h7.984A3.01 3.01 0 0 1 15 4.008V6.98a3.006 3.006 0 0 1-3.008 3.004H4.008A3.006 3.006 0 0 1 1 6.98V4.008A3.01 3.01 0 0 1 4.008 1zm0 0"/><path d="M5 4c.55 0 1 .45 1 1s-.45 1-1 1-1-.45-1-1 .45-1 1-1zm3 0c.55 0 1 .45 1 1s-.45 1-1 1-1-.45-1-1 .45-1 1-1zm0 0"/></g></svg>
